police-station.svg

<svg fill="currentColor" viewBox="0 0 24 24"><path d="M12 10s4-.8 4-2.4c0-.8-.8-2.4-.8-3.2s.8-1.6.8-1.6l-.8-.8c-.46.26-1.04.4-1.6.4S12.46 2.25 12 2c-.46.25-1.04.4-1.6.4S9.26 2.26 8.8 2l-.8.8s.8.8.8 1.6S8 6.8 8 7.6c0 1.6 4 2.4 4 2.4m-.57-4.68L12 4l.55 1.32 1.45.12-1.11.94.33 1.4L12 7.04l-1.24.74.33-1.4L10 5.44zM21 6h-4.35c.19.58.35 1.12.35 1.6 0 2.25-3.68 3.16-4.8 3.4h-.4C10.68 10.76 7 9.85 7 7.6c0-.48.16-1.02.35-1.6H3c-.55 0-1 .45-1 1v15h8v-5h4v5h8V7c0-.55-.45-1-1-1M8 20H4v-3h4zm0-5H4v-3h4zm6 0h-4v-3h4zm6 5h-4v-3h4zm0-5h-4v-3h4z"/></svg>

<svg  viewBox="0 0 24 24" fill="currentColor"><path  d="M12 10C12 10 16 9.2 16 7.6C16 6.8 15.2 5.2 15.2 4.4C15.2 3.6 16 2.8 16 2.8L15.2 2C14.74 2.26 14.16 2.4 13.6 2.4S12.46 2.25 12 2C11.54 2.25 10.96 2.4 10.4 2.4C9.84 2.4 9.26 2.26 8.8 2L8 2.8C8 2.8 8.8 3.6 8.8 4.4C8.8 5.2 8 6.8 8 7.6C8 9.2 12 10 12 10M11.43 5.32L12 4L12.55 5.32L14 5.44L12.89 6.38L13.22 7.78L12 7.04L10.76 7.78L11.09 6.38L10 5.44L11.43 5.32M21 6H16.65C16.84 6.58 17 7.12 17 7.6C17 9.85 13.32 10.76 12.2 11L12 11L11.8 11C10.68 10.76 7 9.85 7 7.6C7 7.12 7.16 6.58 7.35 6H3C2.45 6 2 6.45 2 7V22H10V17H14V22H22V7C22 6.45 21.55 6 21 6M8 20H4V17H8V20M8 15H4V12H8V15M14 15H10V12H14V15M20 20H16V17H20V20M20 15H16V12H20V15Z"/></svg>
